!!!SOCIAL_FUNCTION: steal-partner dance songs
!!!PDT:	1943
!!!LING_GROUP: Muskogean
!!!LANG: Non-Tone
Specific Region: Oklahoma, California, Mississippi, Louisiana, Texas, Alabama
!!!REG: Southeast
!!!COM: Anon.
!!!OTL: Steal-partner Dance Song (b)
!!!ODT: <1933//
!!!MPN: Lysander Tubby
!!!MLC: Philadelphia, Mississippi, United States of America
!! Song was recorded in January 1933.
!!!AGN: monody
!!!AMT: simple duple
!!!RWG: Transcribed pitches, durations, and meters are only approximate.
**kern
*ICvox
*Imale
*clefF4
*k[f#]
*M2/4
*MM92
*[A,A]
=1-
*>A
4G
8G
8F
=2
8E
8E
8E
8r
=3
8G
[8F#
8F#]
8E
=4
4F#
8F#
16E
16r
=5
4F#
8G
8F#
=6
8E
8E
8E
8r
=7
8E
[8E
8E]
8BB
=8
8E
8E
4E
=9
4F#
8F#
8E
=10
8F#
8F#
8B
8r
=11
8E
[8E
8E]
8BB
=12
8E
8E
8E
8r
==:|!
*-
!!!CNT: Choctaw
!!!TXO: Choctaw
!!!OCY: United States
!!!OCL: Frances Densmore
!!!YOR: Frances Densmore, "Choctaw Music"
!!!YOR: Bulletin 136, page 154, No. 34
!!!PPR: Smithsonian Institution, Bureau of American Ethnology
!!!PPR: Government Printing Office
!!!PDT: 1943
!!!PPP: Washington, DC, United States of America
!!!YEC: Electronic Copyright 2000 David Huron
!!!YER: August 2000
!!!YEN: United States of America
!!!ENC: David Huron
!!!RDT: August 28, 2000
!!!EEV: Release 1.0
!!!AIN: vox
